Project 1/Assets.xcassets/book.imageset/book.svg

<?xml version="1.0" encoding="UTF-8" standalone="no"?>
<svg
   xmlns:dc="http://purl.org/dc/elements/1.1/"
   xmlns:cc="http://creativecommons.org/ns#"
   xmlns:rdf="http://www.w3.org/1999/02/22-rdf-syntax-ns#"
   xmlns:svg="http://www.w3.org/2000/svg"
   xmlns="http://www.w3.org/2000/svg"
   xmlns:sodipodi="http://sodipodi.sourceforge.net/DTD/sodipodi-0.dtd"
   xmlns:inkscape="http://www.inkscape.org/namespaces/inkscape"
   id="svg2932"
   viewBox="0 0 64 64"
   version="1.1"
   inkscape:version="0.91+devel r"
   sodipodi:docname="book-pack.svg">
  <defs
     id="defs18" />
  <sodipodi:namedview
     pagecolor="#ffffff"
     bordercolor="#666666"
     borderopacity="1"
     objecttolerance="10"
     gridtolerance="10"
     guidetolerance="10"
     inkscape:pageopacity="0"
     inkscape:pageshadow="2"
     inkscape:window-width="1855"
     inkscape:window-height="1056"
     id="namedview16"
     showgrid="false"
     inkscape:zoom="5.2149125"
     inkscape:cx="-10.030219"
     inkscape:cy="7.4795417"
     inkscape:window-x="1985"
     inkscape:window-y="24"
     inkscape:window-maximized="1"
     inkscape:current-layer="svg2932" />
  <g
     id="g4201"
     transform="translate(3.3994769,-0.20488004)">
    <g
       transform="matrix(1.151959,0,0,1.151959,-10.522781,0.52600754)"
       id="g4004">
      <path
         style="fill:#505050"
         inkscape:connector-curvature="0"
         d="m 18,54 31,0 0,-43 -31,0 0,43 z"
         id="path2948" />
      <path
         style="fill:#008a00"
         inkscape:connector-curvature="0"
         d="m 14,6 0,43 c 0,3 3,5 5,5 L 54,54 54,1 19,1 c -3,0 -5,2 -5,5 z"
         id="path3978" />
      <path
         style="fill:#dddddd"
         inkscape:connector-curvature="0"
         d="m 16,48 c 0,2 1,4 4,4 l 32,0 0,-8 -32,0 c -3,0 -4,2 -4,4 z"
         id="path3980" />
      <path
         style="fill:#60a917"
         inkscape:connector-curvature="0"
         d="M 23,44 54,44 54,1 23,1 23,44 Z"
         id="path3982" />
    </g>
    <path
       inkscape:connector-curvature="0"
       id="path3989"
       d="m 11.363333,8.5698526 c -2.3274671,0 -4.2578808,0.6861125 -5.8452918,1.7526874 l 0,12.669299 c 1.6640647,-1.716542 3.6342947,-2.902396 5.8452918,-2.902396 l 40.318565,0 0,-11.5195904 -40.318565,0 z"
       style="fill:#7a3b3f" />
  </g>
  <metadata
     id="metadata14">
    <rdf:RDF>
      <cc:Work>
        <dc:format>image/svg+xml</dc:format>
        <dc:type
           rdf:resource="http://purl.org/dc/dcmitype/StillImage" />
        <cc:license
           rdf:resource="http://creativecommons.org/publicdomain/zero/1.0/" />
        <dc:publisher>
          <cc:Agent
             rdf:about="http://openclipart.org/">
            <dc:title>Openclipart</dc:title>
          </cc:Agent>
        </dc:publisher>
        <dc:title>books</dc:title>
        <dc:date>2013-10-12T15:15:12</dc:date>
        <dc:description>book pack</dc:description>
        <dc:source>https://openclipart.org/detail/184800/books-by-crisg-184800</dc:source>
        <dc:creator>
          <cc:Agent>
            <dc:title>crisg</dc:title>
          </cc:Agent>
        </dc:creator>
        <dc:subject>
          <rdf:Bag>
            <rdf:li>book</rdf:li>
            <rdf:li>book folder</rdf:li>
            <rdf:li>book library</rdf:li>
            <rdf:li>book pack</rdf:li>
            <rdf:li>icon</rdf:li>
            <rdf:li>library</rdf:li>
            <rdf:li>libreria</rdf:li>
            <rdf:li>libri</rdf:li>
            <rdf:li>my books</rdf:li>
          </rdf:Bag>
        </dc:subject>
      </cc:Work>
      <cc:License
         rdf:about="http://creativecommons.org/publicdomain/zero/1.0/">
        <cc:permits
           rdf:resource="http://creativecommons.org/ns#Reproduction" />
        <cc:permits
           rdf:resource="http://creativecommons.org/ns#Distribution" />
        <cc:permits
           rdf:resource="http://creativecommons.org/ns#DerivativeWorks" />
      </cc:License>
    </rdf:RDF>
  </metadata>
</svg>

<?xml version="1.0" encoding="UTF-8" standalone="no"?>
<svg
   id="svg2932"
   viewBox="0 0 46.164963 61.053825"
   version="1.1"
   inkscape:version="1.4 (e7c3feb1, 2024-10-09)"
   sodipodi:docname="book.svg"
   width="46.164963"
   height="61.053825"
   xmlns:inkscape="http://www.inkscape.org/namespaces/inkscape"
   xmlns:sodipodi="http://sodipodi.sourceforge.net/DTD/sodipodi-0.dtd"
   xmlns="http://www.w3.org/2000/svg"
   xmlns:svg="http://www.w3.org/2000/svg"
   xmlns:rdf="http://www.w3.org/1999/02/22-rdf-syntax-ns#"
   xmlns:cc="http://creativecommons.org/ns#"
   xmlns:dc="http://purl.org/dc/elements/1.1/">
  <defs
     id="defs18" />
  <sodipodi:namedview
     pagecolor="#ffffff"
     bordercolor="#666666"
     borderopacity="1"
     objecttolerance="10"
     gridtolerance="10"
     guidetolerance="10"
     inkscape:pageopacity="0"
     inkscape:pageshadow="2"
     inkscape:window-width="1200"
     inkscape:window-height="1027"
     id="namedview16"
     showgrid="false"
     inkscape:zoom="5.2149125"
     inkscape:cx="-19.079898"
     inkscape:cy="5.9444909"
     inkscape:window-x="4"
     inkscape:window-y="25"
     inkscape:window-maximized="0"
     inkscape:current-layer="svg2932"
     inkscape:showpageshadow="2"
     inkscape:pagecheckerboard="0"
     inkscape:deskcolor="#d1d1d1" />
  <g
     id="g4201"
     transform="translate(-5.5180412,-1.6779665)">
    <g
       transform="matrix(1.151959,0,0,1.151959,-10.522781,0.52600754)"
       id="g4004">
      <path
         style="fill:#505050"
         inkscape:connector-curvature="0"
         d="M 18,54 H 49 V 11 H 18 Z"
         id="path2948" />
      <path
         style="fill:#008a00"
         inkscape:connector-curvature="0"
         d="m 14,6 v 43 c 0,3 3,5 5,5 H 54 V 1 H 19 c -3,0 -5,2 -5,5 z"
         id="path3978" />
      <path
         style="fill:#dddddd"
         inkscape:connector-curvature="0"
         d="m 16,48 c 0,2 1,4 4,4 H 52 V 44 H 20 c -3,0 -4,2 -4,4 z"
         id="path3980" />
      <path
         style="fill:#60a917"
         inkscape:connector-curvature="0"
         d="M 23,44 H 54 V 1 H 23 Z"
         id="path3982" />
    </g>
    <path
       inkscape:connector-curvature="0"
       id="path3989"
       d="m 11.363333,8.5698526 c -2.3274671,0 -4.2578808,0.6861125 -5.8452918,1.7526874 V 22.991839 C 7.1821059,21.275297 9.1523359,20.089443 11.363333,20.089443 H 51.681898 V 8.5698526 Z"
       style="fill:#7a3b3f" />
  </g>
  <metadata
     id="metadata14">
    <rdf:RDF>
      <cc:Work>
        <dc:format>image/svg+xml</dc:format>
        <dc:type
           rdf:resource="http://purl.org/dc/dcmitype/StillImage" />
        <cc:license
           rdf:resource="http://creativecommons.org/publicdomain/zero/1.0/" />
        <dc:publisher>
          <cc:Agent
             rdf:about="http://openclipart.org/">
            <dc:title>Openclipart</dc:title>
          </cc:Agent>
        </dc:publisher>
        <dc:title>books</dc:title>
        <dc:date>2013-10-12T15:15:12</dc:date>
        <dc:description>book pack</dc:description>
        <dc:source>https://openclipart.org/detail/184800/books-by-crisg-184800</dc:source>
        <dc:creator>
          <cc:Agent>
            <dc:title>crisg</dc:title>
          </cc:Agent>
        </dc:creator>
        <dc:subject>
          <rdf:Bag>
            <rdf:li>book</rdf:li>
            <rdf:li>book folder</rdf:li>
            <rdf:li>book library</rdf:li>
            <rdf:li>book pack</rdf:li>
            <rdf:li>icon</rdf:li>
            <rdf:li>library</rdf:li>
            <rdf:li>libreria</rdf:li>
            <rdf:li>libri</rdf:li>
            <rdf:li>my books</rdf:li>
          </rdf:Bag>
        </dc:subject>
      </cc:Work>
      <cc:License
         rdf:about="http://creativecommons.org/publicdomain/zero/1.0/">
        <cc:permits
           rdf:resource="http://creativecommons.org/ns#Reproduction" />
        <cc:permits
           rdf:resource="http://creativecommons.org/ns#Distribution" />
        <cc:permits
           rdf:resource="http://creativecommons.org/ns#DerivativeWorks" />
      </cc:License>
    </rdf:RDF>
  </metadata>
</svg>
